!!!OTL: Susanna, willt du mit?
!!!ARE: Europa, Mitteleuropa, Deutschland
!!!SCT: A0290A
!!!TXL: @@GMH
!!!YEM: Copyright 1995, estate of Helmut Schaffrath.
**kern	**text
*M4/2	*
*met(c|)	*
*clefC1	*
*k[b-]	*
*g:dor	*
!LO:TX:a:t=dor. tr.	!
{1g	Du
=1	=1
2b-	Sündrin,
2g	.
2b-	wil-
2cc	-tu
=2	=2
1.dd}	mit?
{2g	Du
=3	=3
2b-	Sündrin,
2g	.
2b-	wil-
2cc	-tu
=4	=4
1.dd}	mit?
{2dd	Wir
=5	=5
2dd	wolln
2dd	ʒum
2dd	Her-
2dd	-ren
=6	=6
2b-	Chri-
2b-	-ſto
2a}	gahn,
{2g	vnd
=7	=7
2cc	fahn
2cc	ein
2cc	an-
2dd	-der
=8	=8
2b-	le-
2b-	-ben
2a}	an,
{2dd	drumb
=9	=9
2dd	ich
2cc	dich
2b-	flei-
2a	-ßig
=10	=10
1.g}	bitt,
{2dd	drum
=11	=11
2dd	ich
2cc	dich
2b-	flei-
2a	-ßig
=12	=12
1gll}	bitt.
==	==
!!!GTL: Tanz- und Kranzlieder
!!!AGN: Romanze, Ballade, Lied
!! Calvisius Harmonia Cantionum Ecclesiasticum 1597 No. 77
!!!ONB: ESAC (Essen Associative Code) Database: ALTDEU
!!!AMT: simple quadruple
!!!AIN: vox
!!!EED: Helmut Schaffrath
!!!EEV: 1.0
!!!RDF**kern: l = terminal long
!!!AMD: Dorian
!!!URL-scan: https://rosdok.uni-rostock.de/mcrviewer/recordIdentifier/rosdok_ppn738218359/iview2/phys_0445.iview2?x=-495.6391625615763&y=4.752216753317043&scale=0.4629418472063854&rotation=0&layout=singlePageLayout&logicalDiv=log_0012
!!!ENC: Anna Maria Matuszewska
!!!EEV: 2024/12/03
*-	*-
